X:1
T:Title
%%score { 1 | 2 }
L:1/8
M:4/4
K:Ab
V:1 treble nm="Grand Piano"
V:2 bass 
V:1
 z4 z2[Q:1/4=100] [CE]>[CE] | [CA]2 [CA]>[CA] [CA]>[Ec] [EA]>[EG] | %2
 [DF]>[EG] [FA]>[DF] [CE]2 [EA]>[EB] | [Ec]>c c>c d>[Ec] [=DB]>[Dc] | B6 c>d | %5
 e2 e>e [Ec]>[EB] [EA]>[EG] | [DF]>[EG] [FA]>[DF] [CE]2 [EA]>B | c>c d>c [Fc]>[FB] [EA]>[DG] | %8
[M:3/4] [CA]6 |[M:1/4] c>d |[M:4/4] e2 c4 E2 | F>[FA] [EG]>[DF] [DF][CE] c>d | %12
 e3 [EA] [=DB]2 [Dc]2 | B6 c>d | e2 e>e [Ec]>[EB] [EA]>[EG] | [DF]>[EG] [FA]>[DF] [CE]2 c>d | %16
 e2 A>B c2 B2 |[M:3/4] [CA]6 |] %18
V:2
 z4 z2 [A,,A,]>[A,,A,] | [A,,E,]2 [A,,E,]>[A,,E,] [A,,E,]>[A,,A,] [C,A,]>[C,A,] | %2
 [D,A,]>[D,A,] [D,A,]>[D,A,] [A,,A,]2 [C,A,]>[B,,G,] | %3
 [A,,A,]>[K:treble][A,E] [A,E]>[A,E] [A,F]>[K:bass][A,,A,] [B,,A,]>[B,,A,] | %4
 [E,G,E]6 [A,E]>[K:treble][A,B,E] | [A,CE]2 [A,CA]>[A,CA][K:bass] [A,,A,]>[B,,G,] [C,A,]>[C,A,] | %6
 [D,A,]>[D,A,] [D,A,]>[D,A,] [A,,A,]2 [C,A,]>[E,G,E] | %7
 [A,E]>[A,E] [A,F]>[K:bass][A,E] [D,A,]>[D,D] [E,C]>[E,B,] |[M:3/4] [A,,A,]6 | %9
[M:1/4] [A,E]>[A,B,E] |[M:4/4] [A,CE]2 [A,E]4 [C,A,]2 | %11
 [D,A,D]>[D,A,] [D,A,]>[D,A,] [A,,A,][A,,A,] [A,E]>[A,B,E] | [A,CE]3 [C,A,] [B,,A,]2 [B,,A,]2 | %13
 [E,G,E]6[K:treble] [A,E]>[A,B,E] | [A,CE]2 [A,CA]>[A,CA][K:bass] [A,,A,]>[B,,G,] [C,A,]>[C,A,] | %15
 [D,A,]>[D,A,] [D,A,]>[D,A,] [A,,A,]2 [A,E]>[A,E] | [A,CE]2 [F,A,=D]>[=E,A,D] [_E,A,E]2 [E,G,_D]2 | %17
[M:3/4] [A,,E,A,]6 |] %18

